paymentMethods/cardano.svg

<svg width="128" height="64" viewBox="0 0 128 64" fill="none" xmlns="http://www.w3.org/2000/svg">
<rect width="128" height="64" rx="6" fill="white"/>
<path d="M12.8828 31.914C12.8582 32.3643 13.0129 32.8061 13.3131 33.1428C13.6133 33.4794 14.0345 33.6836 14.4847 33.7106H14.5783C14.9103 33.7108 15.2351 33.6137 15.5125 33.4314C15.7899 33.2491 16.0079 32.9895 16.1394 32.6847C16.271 32.3799 16.3104 32.0432 16.2527 31.7163C16.1951 31.3893 16.043 31.0864 15.8151 30.845C15.5872 30.6035 15.2937 30.4341 14.9706 30.3577C14.6475 30.2812 14.3092 30.3011 13.9973 30.4148C13.6854 30.5285 13.4136 30.7311 13.2155 30.9975C13.0175 31.2639 12.9018 31.5825 12.8828 31.914V31.914Z" fill="#0033AD"/>
<path d="M6.54977 31.4797C6.40944 31.4798 6.27445 31.5336 6.17243 31.6299C6.0704 31.7263 6.00905 31.858 6.00092 31.9981C5.9928 32.1382 6.03851 32.2761 6.1287 32.3836C6.2189 32.4911 6.34677 32.5601 6.48614 32.5764C6.63107 32.5848 6.77342 32.5354 6.88187 32.4389C6.99032 32.3423 7.05598 32.2067 7.06442 32.0618C7.07286 31.9168 7.02338 31.7745 6.92686 31.666C6.83035 31.5576 6.6947 31.4919 6.54977 31.4835V31.4797Z" fill="#0033AD"/>
<path d="M12.7743 22.0551C12.8702 22.0048 12.9491 21.9274 13.0012 21.8325C13.0533 21.7375 13.0762 21.6294 13.0671 21.5215C13.058 21.4136 13.0172 21.3108 12.95 21.2259C12.8827 21.1411 12.7919 21.078 12.6889 21.0445C12.5859 21.0111 12.4754 21.0087 12.3711 21.0378C12.2668 21.0669 12.1734 21.1261 12.1026 21.208C12.0318 21.2899 11.9867 21.3909 11.973 21.4983C11.9594 21.6057 11.9777 21.7148 12.0257 21.8118C12.0923 21.9438 12.2085 22.0439 12.3489 22.0903C12.4892 22.1366 12.6422 22.1253 12.7743 22.0588V22.0551Z" fill="#0033AD"/>
<path d="M14.4997 25.0608C14.6497 24.9849 14.7737 24.8663 14.8563 24.7199C14.9388 24.5735 14.976 24.4059 14.9633 24.2383C14.9506 24.0707 14.8885 23.9107 14.7848 23.7784C14.6811 23.6462 14.5405 23.5476 14.3808 23.4953C14.2211 23.4429 14.0495 23.4391 13.8876 23.4843C13.7258 23.5295 13.581 23.6217 13.4715 23.7492C13.362 23.8767 13.2928 24.0338 13.2726 24.2006C13.2524 24.3675 13.2822 24.5365 13.3581 24.6865V24.6865C13.4599 24.8875 13.6373 25.0398 13.8514 25.11C14.0655 25.1802 14.2987 25.1625 14.4997 25.0608V25.0608Z" fill="#0033AD"/>
<path d="M8.69823 27.1344C8.81374 27.2107 8.9493 27.251 9.08775 27.2503C9.2262 27.2496 9.36133 27.2078 9.47603 27.1303C9.59074 27.0527 9.67988 26.9429 9.73217 26.8147C9.78446 26.6865 9.79756 26.5457 9.7698 26.4101C9.74204 26.2744 9.67468 26.1501 9.57623 26.0527C9.47779 25.9554 9.35268 25.8894 9.21674 25.8632C9.08079 25.8369 8.94012 25.8516 8.81252 25.9053C8.68491 25.959 8.5761 26.0494 8.49986 26.1649V26.1649C8.39767 26.3198 8.36117 26.5089 8.39837 26.6907C8.43557 26.8725 8.54342 27.0321 8.69823 27.1344Z" fill="#0033AD"/>
<path d="M9.73129 31.1729C9.50746 31.1596 9.28751 31.2357 9.11977 31.3845C8.95203 31.5333 8.85023 31.7426 8.83673 31.9664V31.9664C8.82666 32.1342 8.86657 32.3012 8.95142 32.4463C9.03627 32.5914 9.16225 32.708 9.31341 32.7815C9.46457 32.855 9.63413 32.882 9.80064 32.8591C9.96715 32.8362 10.1231 32.7644 10.2488 32.6528C10.3745 32.5413 10.4643 32.3949 10.5068 32.2323C10.5494 32.0697 10.5427 31.8981 10.4877 31.7393C10.4327 31.5805 10.3318 31.4415 10.1979 31.3401C10.0639 31.2386 9.90281 31.1791 9.73503 31.1692L9.73129 31.1729Z" fill="#0033AD"/>
<path d="M8.79169 36.8658C8.66935 36.9285 8.56831 37.026 8.50129 37.146C8.43428 37.266 8.4043 37.4032 8.41513 37.5402C8.42596 37.6772 8.47711 37.808 8.56215 37.916C8.64718 38.024 8.76229 38.1044 8.89295 38.1471C9.02362 38.1898 9.164 38.1929 9.2964 38.1559C9.4288 38.1189 9.54728 38.0436 9.63693 37.9394C9.72657 37.8352 9.78336 37.7067 9.80013 37.5703C9.8169 37.4339 9.7929 37.2955 9.73116 37.1727C9.6899 37.0906 9.6328 37.0175 9.56315 36.9576C9.49349 36.8977 9.41267 36.8521 9.32534 36.8236C9.23801 36.7951 9.14589 36.7841 9.0543 36.7913C8.96271 36.7986 8.87346 36.8239 8.79169 36.8658V36.8658Z" fill="#0033AD"/>
<path d="M12.0893 29.4174C12.2543 29.5261 12.4479 29.5835 12.6455 29.5822C12.8431 29.5809 13.0359 29.5211 13.1995 29.4102C13.3631 29.2994 13.4902 29.1425 13.5647 28.9594C13.6392 28.7764 13.6577 28.5754 13.6179 28.3818C13.5782 28.1882 13.4819 28.0107 13.3413 27.8719C13.2007 27.733 13.0221 27.6389 12.828 27.6015C12.634 27.5642 12.4332 27.5852 12.2511 27.6619C12.0689 27.7386 11.9136 27.8676 11.8048 28.0325V28.0325C11.7325 28.1421 11.6825 28.2649 11.6577 28.3938C11.6329 28.5228 11.6337 28.6553 11.6601 28.7839C11.6865 28.9125 11.738 29.0347 11.8116 29.1434C11.8853 29.2521 11.9796 29.3452 12.0893 29.4174V29.4174Z" fill="#0033AD"/>
<path d="M22.5545 24.9933C22.6952 25.0848 22.8599 25.1325 23.0278 25.1305C23.1956 25.1285 23.3591 25.0768 23.4976 24.9819C23.6361 24.8871 23.7434 24.7533 23.8059 24.5975C23.8685 24.4418 23.8835 24.271 23.8491 24.1067C23.8146 23.9424 23.7323 23.792 23.6125 23.6744C23.4927 23.5569 23.3407 23.4774 23.1758 23.4462C23.0109 23.4149 22.8404 23.4332 22.6859 23.4987C22.5313 23.5642 22.3996 23.674 22.3074 23.8143C22.246 23.9078 22.2036 24.0126 22.1827 24.1226C22.1619 24.2326 22.1629 24.3456 22.1859 24.4552C22.2089 24.5647 22.2532 24.6687 22.3165 24.761C22.3797 24.8534 22.4606 24.9323 22.5545 24.9933V24.9933Z" fill="#0033AD"/>
<path d="M24.3098 21.9953C24.3996 22.0584 24.5062 22.0932 24.616 22.0952C24.7257 22.0972 24.8335 22.0664 24.9256 22.0067C25.0176 21.947 25.0897 21.8611 25.1326 21.76C25.1755 21.659 25.1872 21.5475 25.1662 21.4398C25.1452 21.3321 25.0924 21.2331 25.0147 21.1556C24.9371 21.0781 24.838 21.0256 24.7302 21.0048C24.6224 20.984 24.5109 20.996 24.41 21.0391C24.3091 21.0822 24.2234 21.1545 24.1639 21.2467V21.2467C24.0868 21.3662 24.0589 21.5108 24.0861 21.6504C24.1133 21.7899 24.1935 21.9135 24.3098 21.9953V21.9953Z" fill="#0033AD"/>
<path d="M22.6855 30.297C22.2633 30.2996 21.8572 30.4593 21.5464 30.7449C21.2355 31.0305 21.042 31.4216 21.0037 31.8421C20.9654 32.2625 21.085 32.6821 21.3391 33.0192C21.5933 33.3563 21.9638 33.5868 22.3786 33.6656H22.4909H22.5882C22.9083 33.659 23.22 33.5621 23.4874 33.386C23.7548 33.2099 23.9671 32.9619 24.0997 32.6705C24.2323 32.3791 24.2799 32.0561 24.2369 31.7388C24.194 31.4215 24.0623 31.1228 23.857 30.8771C23.7107 30.7068 23.5315 30.5676 23.3303 30.4679C23.129 30.3682 22.9097 30.3101 22.6855 30.297V30.297Z" fill="#0033AD"/>
<path d="M15.0575 29.3014C15.1914 29.5719 15.3952 29.8018 15.6477 29.9673C15.9002 30.1327 16.1923 30.2278 16.4939 30.2426C16.7954 30.2573 17.0954 30.1914 17.3629 30.0514C17.6304 29.9115 17.8557 29.7026 18.0155 29.4465C18.1753 29.1904 18.2638 28.8962 18.2719 28.5944C18.28 28.2926 18.2073 27.9942 18.0615 27.7298C17.9156 27.4655 17.7018 27.2449 17.4422 27.0909C17.1825 26.9368 16.8865 26.8549 16.5846 26.8535V26.8535C16.3605 26.8525 16.1384 26.8959 15.9311 26.9811C15.7239 27.0663 15.5355 27.1916 15.3768 27.3499C15.2182 27.5082 15.0924 27.6963 15.0068 27.9034C14.9212 28.1105 14.8773 28.3325 14.8778 28.5566V28.5566C14.8791 28.8154 14.9406 29.0704 15.0575 29.3014V29.3014Z" fill="#0033AD"/>
<path d="M28.3785 27.1343C28.4603 27.093 28.5333 27.036 28.5931 26.9666C28.6529 26.8971 28.6984 26.8165 28.7271 26.7295C28.7558 26.6424 28.767 26.5505 28.7602 26.4591C28.7534 26.3677 28.7286 26.2786 28.6873 26.1967C28.646 26.1149 28.589 26.042 28.5195 25.9822C28.4501 25.9224 28.3695 25.8768 28.2825 25.8481C28.1954 25.8195 28.1035 25.8082 28.0121 25.815C27.9207 25.8219 27.8315 25.8466 27.7497 25.8879V25.8879C27.5844 25.9713 27.459 26.1169 27.4011 26.2928C27.3432 26.4686 27.3575 26.6602 27.4409 26.8255C27.5243 26.9908 27.6699 27.1162 27.8458 27.1741C28.0216 27.232 28.2132 27.2177 28.3785 27.1343V27.1343Z" fill="#0033AD"/>
<path d="M24.0702 27.6658C23.8921 27.7534 23.7441 27.892 23.6451 28.0641C23.546 28.2361 23.5005 28.4338 23.5142 28.6318C23.528 28.8298 23.6004 29.0193 23.7222 29.176C23.8441 29.3327 24.0099 29.4496 24.1984 29.5117C24.3869 29.5739 24.5897 29.5784 24.7808 29.5249C24.972 29.4713 25.1428 29.3621 25.2716 29.211C25.4004 29.06 25.4813 28.874 25.504 28.6768C25.5267 28.4795 25.4901 28.28 25.399 28.1037C25.2789 27.8713 25.0724 27.6953 24.824 27.6135C24.5756 27.5316 24.305 27.5504 24.0702 27.6658V27.6658Z" fill="#0033AD"/>
<path d="M18.5196 21.7407C18.6574 21.7484 18.7943 21.7153 18.9133 21.6454C19.0323 21.5756 19.128 21.4721 19.1884 21.348C19.2488 21.2239 19.2711 21.0848 19.2526 20.948C19.2341 20.8113 19.1756 20.683 19.0844 20.5795C18.9933 20.4759 18.8735 20.4015 18.7402 20.3658C18.607 20.3301 18.4661 20.3345 18.3353 20.3786C18.2046 20.4227 18.0898 20.5045 18.0053 20.6136C17.9209 20.7228 17.8706 20.8544 17.8608 20.9921V20.9921C17.8484 21.177 17.9095 21.3593 18.0307 21.4995C18.152 21.6396 18.3236 21.7263 18.5084 21.7407H18.5196Z" fill="#0033AD"/>
<path d="M18.5121 26.1386C18.7094 26.1501 18.9058 26.1029 19.0762 26.0028C19.2467 25.9027 19.3837 25.7544 19.4698 25.5764C19.5559 25.3985 19.5874 25.1991 19.5602 25.0033C19.5329 24.8075 19.4482 24.6242 19.3168 24.4765C19.1854 24.3289 19.0131 24.2235 18.8218 24.1738C18.6305 24.124 18.4288 24.1321 18.2421 24.1971C18.0554 24.262 17.8921 24.3808 17.7729 24.5385C17.6538 24.6963 17.5841 24.8858 17.5726 25.0831V25.0831C17.5583 25.3474 17.649 25.6067 17.825 25.8044C18.001 26.0021 18.2479 26.1222 18.5121 26.1386V26.1386Z" fill="#0033AD"/>
<path d="M13.0999 36.3344C13.2768 36.246 13.4234 36.1071 13.5213 35.9353C13.6192 35.7635 13.664 35.5665 13.6499 35.3693C13.6358 35.1721 13.5635 34.9834 13.4422 34.8273C13.3208 34.6712 13.1559 34.5546 12.9683 34.4922C12.7806 34.4298 12.5787 34.4245 12.3881 34.4769C12.1974 34.5294 12.0266 34.6372 11.8972 34.7867C11.7679 34.9363 11.6858 35.1208 11.6613 35.317C11.6369 35.5132 11.6712 35.7123 11.76 35.889V35.889C11.878 36.1214 12.0826 36.2983 12.3296 36.3816C12.5767 36.4649 12.8465 36.4479 13.0812 36.3344H13.0999Z" fill="#0033AD"/>
<path d="M19.1596 27.5946C18.9488 27.9078 18.8485 28.2824 18.8747 28.6591C18.9009 29.0358 19.0521 29.3929 19.3042 29.6739C19.5564 29.9549 19.8952 30.1437 20.2668 30.2104C20.6385 30.277 21.0217 30.2177 21.3558 30.0419C21.69 29.866 21.9558 29.5837 22.1113 29.2396C22.2668 28.8955 22.3029 28.5094 22.2141 28.1424C22.1252 27.7755 21.9164 27.4486 21.6207 27.2138C21.3251 26.979 20.9595 26.8495 20.5819 26.846C20.3015 26.8437 20.0249 26.9109 19.7767 27.0415C19.5285 27.1721 19.3165 27.3621 19.1596 27.5946V27.5946Z" fill="#0033AD"/>
<path d="M22.1128 34.6986C21.9763 34.4289 21.7704 34.2005 21.5162 34.0369C21.262 33.8733 20.9688 33.7805 20.6668 33.768C20.3647 33.7556 20.0649 33.8239 19.7981 33.9659C19.5312 34.108 19.3072 34.3186 19.1489 34.5762C18.9906 34.8337 18.9039 35.1288 18.8977 35.431C18.8915 35.7332 18.966 36.0316 19.1135 36.2954C19.2611 36.5592 19.4763 36.7789 19.7371 36.9318C19.9978 37.0846 20.2947 37.1652 20.5969 37.1652C20.8574 37.16 21.1133 37.096 21.3455 36.978C21.7484 36.7763 22.0551 36.4234 22.1989 35.9964C22.3426 35.5694 22.3117 35.1029 22.1128 34.6986V34.6986Z" fill="#0033AD"/>
<path d="M25.081 34.5826C24.9159 34.4739 24.7223 34.4166 24.5247 34.4179C24.3271 34.4192 24.1343 34.479 23.9707 34.5898C23.8071 34.7007 23.68 34.8576 23.6055 35.0406C23.5311 35.2237 23.5125 35.4247 23.5523 35.6183C23.5921 35.8119 23.6883 35.9893 23.8289 36.1282C23.9695 36.2671 24.1481 36.3611 24.3422 36.3985C24.5363 36.4359 24.737 36.4149 24.9192 36.3382C25.1013 36.2615 25.2566 36.1325 25.3654 35.9675V35.9675C25.4377 35.8579 25.4877 35.7351 25.5125 35.6062C25.5374 35.4773 25.5366 35.3447 25.5101 35.2161C25.4837 35.0875 25.4322 34.9654 25.3586 34.8567C25.2849 34.748 25.1906 34.6549 25.081 34.5826V34.5826Z" fill="#0033AD"/>
<path d="M28.3336 32.03C28.3437 31.8622 28.3038 31.6952 28.2189 31.5501C28.1341 31.405 28.0081 31.2884 27.8569 31.2149C27.7058 31.1414 27.5362 31.1144 27.3697 31.1373C27.2032 31.1602 27.0472 31.232 26.9215 31.3436C26.7958 31.4551 26.706 31.6015 26.6635 31.7641C26.621 31.9267 26.6276 32.0983 26.6826 32.2571C26.7376 32.4159 26.8385 32.5548 26.9725 32.6563C27.1065 32.7578 27.2675 32.8173 27.4353 32.8272V32.8272C27.6601 32.8405 27.881 32.764 28.0495 32.6145C28.2179 32.465 28.3201 32.2548 28.3336 32.03Z" fill="#0033AD"/>
<path d="M30.6729 31.4237C30.5643 31.4193 30.4569 31.4473 30.3643 31.5039C30.2716 31.5605 30.1977 31.6433 30.152 31.7418C30.1062 31.8403 30.0907 31.9502 30.1073 32.0575C30.1239 32.1648 30.1719 32.2649 30.2452 32.345C30.3186 32.4251 30.414 32.4817 30.5195 32.5077C30.6249 32.5336 30.7357 32.5278 30.8379 32.4909C30.94 32.4541 31.029 32.3878 31.0935 32.3004C31.1581 32.2131 31.1953 32.1085 31.2006 32.0001V32.0001C31.2041 31.9275 31.1932 31.8549 31.1686 31.7866C31.1439 31.7182 31.1059 31.6555 31.0568 31.6019C31.0078 31.5483 30.9486 31.5049 30.8827 31.4744C30.8168 31.4438 30.7455 31.4265 30.6729 31.4237V31.4237Z" fill="#0033AD"/>
<path d="M28.472 36.8658C28.3565 36.7895 28.2209 36.7492 28.0825 36.7499C27.944 36.7506 27.8089 36.7924 27.6942 36.8699C27.5795 36.9474 27.4904 37.0573 27.4381 37.1855C27.3858 37.3137 27.3727 37.4545 27.4004 37.5901C27.4282 37.7258 27.4956 37.8501 27.594 37.9475C27.6925 38.0448 27.8176 38.1108 27.9535 38.137C28.0894 38.1633 28.2301 38.1486 28.3577 38.0949C28.4853 38.0412 28.5941 37.9508 28.6704 37.8353V37.8353C28.7716 37.6801 28.8075 37.4913 28.7704 37.3098C28.7332 37.1283 28.626 36.9688 28.472 36.8658V36.8658Z" fill="#0033AD"/>
<path d="M12.8753 42.0048C12.7855 41.9417 12.6789 41.9069 12.5692 41.9049C12.4595 41.9028 12.3516 41.9337 12.2596 41.9934C12.1675 42.0531 12.0954 42.139 12.0525 42.24C12.0096 42.3411 11.998 42.4526 12.019 42.5603C12.04 42.668 12.0927 42.767 12.1704 42.8445C12.2481 42.922 12.3472 42.9745 12.4549 42.9953C12.5627 43.016 12.6742 43.0041 12.7751 42.961C12.876 42.9179 12.9618 42.8456 13.0213 42.7534V42.7534C13.0993 42.6342 13.1277 42.4892 13.1005 42.3494C13.0732 42.2096 12.9924 42.0859 12.8753 42.0048V42.0048Z" fill="#0033AD"/>
<path d="M24.3923 41.945C24.2964 41.9952 24.2175 42.0727 24.1654 42.1676C24.1133 42.2625 24.0904 42.3707 24.0995 42.4786C24.1086 42.5865 24.1494 42.6893 24.2166 42.7741C24.2839 42.859 24.3747 42.9221 24.4777 42.9555C24.5807 42.989 24.6912 42.9913 24.7955 42.9623C24.8998 42.9332 24.9932 42.874 25.064 42.7921C25.1348 42.7101 25.1799 42.6092 25.1935 42.5018C25.2072 42.3943 25.1889 42.2853 25.1409 42.1882V42.1882C25.0743 42.0563 24.9581 41.9561 24.8177 41.9098C24.6773 41.8635 24.5243 41.8748 24.3923 41.9412V41.945Z" fill="#0033AD"/>
<path d="M18.0105 36.4017C18.2214 36.0885 18.3216 35.7139 18.2954 35.3372C18.2693 34.9605 18.1181 34.6034 17.8659 34.3224C17.6137 34.0414 17.275 33.8526 16.9033 33.7859C16.5317 33.7193 16.1484 33.7786 15.8143 33.9544C15.4802 34.1303 15.2143 34.4126 15.0588 34.7567C14.9034 35.1008 14.8672 35.4869 14.9561 35.8539C15.0449 36.2208 15.2537 36.5476 15.5494 36.7825C15.8451 37.0173 16.2106 37.1468 16.5882 37.1503C16.8686 37.1526 17.1453 37.0854 17.3934 36.9548C17.6416 36.8242 17.8536 36.6342 18.0105 36.4017Z" fill="#0033AD"/>
<path d="M14.6157 39.0105C14.4755 38.9197 14.3116 38.8725 14.1446 38.8748C13.9776 38.8771 13.815 38.9288 13.6773 39.0234C13.5396 39.1179 13.433 39.2511 13.3709 39.4062C13.3088 39.5612 13.294 39.7312 13.3284 39.8947C13.3627 40.0581 13.4447 40.2077 13.564 40.3247C13.6832 40.4416 13.8344 40.5206 13.9985 40.5517C14.1626 40.5829 14.3323 40.5647 14.4861 40.4996C14.6399 40.4345 14.7709 40.3253 14.8628 40.1857C14.9242 40.0925 14.9665 39.988 14.9873 39.8783C15.0081 39.7686 15.007 39.6559 14.984 39.5467C14.961 39.4374 14.9167 39.3338 14.8535 39.2417C14.7903 39.1497 14.7095 39.0711 14.6157 39.0105V39.0105Z" fill="#0033AD"/>
<path d="M18.5758 42.2593C18.438 42.2515 18.301 42.2847 18.182 42.3545C18.063 42.4244 17.9673 42.5279 17.9069 42.6519C17.8466 42.776 17.8242 42.9152 17.8427 43.0519C17.8612 43.1887 17.9197 43.3169 18.0109 43.4205C18.1021 43.5241 18.2218 43.5984 18.3551 43.6342C18.4884 43.6699 18.6293 43.6654 18.76 43.6213C18.8908 43.5772 19.0056 43.4955 19.09 43.3863C19.1744 43.2772 19.2247 43.1455 19.2345 43.0079C19.2411 42.9153 19.2292 42.8224 19.1996 42.7344C19.1699 42.6465 19.1231 42.5654 19.0618 42.4957C19.0005 42.4261 18.926 42.3693 18.8425 42.3287C18.7591 42.2881 18.6684 42.2645 18.5758 42.2593V42.2593Z" fill="#0033AD"/>
<path d="M18.5832 37.8614C18.3861 37.85 18.1899 37.8972 18.0196 37.9971C17.8492 38.0971 17.7123 38.2452 17.6261 38.4229C17.5399 38.6006 17.5083 38.7999 17.5352 38.9955C17.5622 39.1912 17.6465 39.3745 17.7776 39.5222C17.9086 39.67 18.0805 39.7756 18.2716 39.8257C18.4626 39.8759 18.6642 39.8683 18.8509 39.8039C19.0376 39.7395 19.2011 39.6213 19.3207 39.4641C19.4402 39.3069 19.5105 39.1178 19.5227 38.9207V38.9207C19.5381 38.6557 19.4478 38.3955 19.2717 38.197C19.0957 37.9985 18.8481 37.8778 18.5832 37.8614V37.8614Z" fill="#0033AD"/>
<path d="M22.6705 38.9394C22.5206 39.0153 22.3965 39.1339 22.314 39.2803C22.2314 39.4267 22.1942 39.5943 22.2069 39.7619C22.2196 39.9295 22.2818 40.0895 22.3855 40.2217C22.4891 40.354 22.6297 40.4525 22.7894 40.5049C22.9491 40.5573 23.1207 40.5611 23.2826 40.5159C23.4445 40.4707 23.5893 40.3785 23.6988 40.251C23.8082 40.1235 23.8774 39.9664 23.8976 39.7996C23.9178 39.6327 23.888 39.4636 23.8121 39.3137V39.3137C23.7103 39.1127 23.5329 38.9604 23.3188 38.8902C23.1047 38.82 22.8715 38.8377 22.6705 38.9394V38.9394Z" fill="#0033AD"/>
<path d="M41.415 27.9876C43.0581 27.9876 44.211 28.8896 44.211 30.5702H46.3669C46.3669 27.6245 44.196 26.2059 41.3813 26.2059C37.9266 26.2059 35.9204 28.0774 35.9204 32.0486C35.9204 36.1097 37.9266 37.8876 41.3813 37.8876C44.2297 37.8876 46.3669 36.5064 46.3669 33.5608H44.2933C44.2933 35.2039 43.1704 36.1097 41.415 36.1097C39.1281 36.1097 38.0726 34.8446 38.0726 32.2096V31.8839C38.0763 29.3013 39.1431 27.9876 41.415 27.9876Z" fill="#0033AD"/>
<path d="M52.0636 26.4082L47.6694 37.6931H49.8441L50.7461 35.2415H55.9076L56.8358 37.6931H59.119L54.7136 26.4082H52.0636ZM51.4049 33.4599L52.5577 30.3682C52.786 29.7581 53.1977 28.4443 53.2801 28.2123H53.3624C53.4447 28.4443 53.8565 29.7768 54.0848 30.3682L55.2376 33.4599H51.4049Z" fill="#0033AD"/>
<path d="M70.8531 29.8292C70.8531 27.7407 69.6516 26.4082 67.17 26.4082H61.2113V37.6931H63.3186V33.3289H66.8219L68.9554 37.6931H71.261L68.8506 33.0032C70.1793 32.4792 70.8531 31.3601 70.8531 29.8292ZM67.0016 31.5547H63.3186V28.1861H67.0016C68.1245 28.1861 68.7308 28.7924 68.7308 29.8143C68.7515 30.0222 68.731 30.2321 68.6705 30.4321C68.6101 30.6322 68.5108 30.8183 68.3783 30.9799C68.2459 31.1415 68.083 31.2755 67.8987 31.3741C67.7145 31.4727 67.5127 31.5341 67.3048 31.5547C67.2038 31.5622 67.1025 31.5622 67.0016 31.5547V31.5547Z" fill="#0033AD"/>
<path d="M78.2416 26.4082H73.7164V37.6931H78.2079C81.614 37.6931 83.6838 35.9152 83.6838 32.0488C83.6838 28.1823 81.6439 26.4082 78.2416 26.4082ZM81.5766 32.2135C81.5578 34.6838 80.39 35.9002 78.2528 35.9002H75.8499V28.2011H78.2528C80.3863 28.2011 81.5766 29.4175 81.5766 31.8841V32.2135Z" fill="#0033AD"/>
<path d="M89.2346 26.4082L84.8367 37.6931H87.0113L87.9133 35.2415H93.0823L94.0031 37.6931H96.2713L91.8808 26.4082H89.2346ZM88.5758 33.4599L89.7249 30.3682C89.9532 29.7581 90.365 28.4443 90.4473 28.2123H90.5334C90.6157 28.4443 91.0274 29.7768 91.2558 30.3682L92.4086 33.4599H88.5758Z" fill="#0033AD"/>
<path d="M105.905 33.1229C105.905 33.3362 105.939 33.9126 105.939 34.0099L105.857 34.0436C105.808 33.98 105.483 33.4036 105.299 33.1378L100.4 26.3856H98.3822V37.693H100.403V30.9295C100.403 30.6525 100.37 30.1098 100.37 30.0275L100.452 29.9751C100.504 30.0424 100.748 30.5215 101.01 30.8996L105.947 37.693H107.919V26.4081H105.905V33.1229Z" fill="#0033AD"/>
<path d="M116.307 26.2097C112.77 26.2097 110.633 28.0812 110.633 32.0487C110.633 36.0162 112.766 37.8876 116.307 37.8876C119.848 37.8876 122 36.0162 122 32.0487C122 28.0812 119.844 26.2097 116.307 26.2097ZM119.844 32.2321C119.844 34.8147 118.613 36.1135 116.307 36.1135C114.001 36.1135 112.789 34.8147 112.789 32.2321V31.884C112.789 29.3014 114.039 27.9876 116.307 27.9876C118.575 27.9876 119.844 29.3014 119.844 31.884V32.2321Z" fill="#0033AD"/>
</svg>

<svg xmlns="http://www.w3.org/2000/svg" width="128" height="64" fill="none"><rect width="128" height="64" fill="#fff" rx="6"/><path fill="#0033AD" d="M12.883 31.914a1.707 1.707 0 0 0 1.602 1.797h.093a1.7 1.7 0 1 0-1.695-1.797ZM6.55 31.48a.55.55 0 0 0-.064 1.096.548.548 0 0 0 .064-1.093v-.003ZM12.774 22.055a.55.55 0 1 0-.425.035c.14.047.293.035.425-.031v-.004ZM14.5 25.06a.85.85 0 1 0-1.142-.373.85.85 0 0 0 1.142.374ZM8.698 27.134a.7.7 0 1 0-.198-.97.7.7 0 0 0 .198.97ZM9.731 31.173a.846.846 0 0 0-.894.793.85.85 0 1 0 .898-.797l-.004.004ZM8.792 36.866a.696.696 0 1 0 .635 1.24.696.696 0 0 0-.635-1.24ZM12.09 29.417a1 1 0 1 0-.285-1.385.999.999 0 0 0 .284 1.385ZM22.555 24.993a.85.85 0 1 0 .926-1.424.85.85 0 0 0-.927 1.424ZM24.31 21.995a.55.55 0 1 0-.146-.748.55.55 0 0 0 .146.748ZM22.686 30.297a1.699 1.699 0 0 0-.307 3.369H22.588a1.698 1.698 0 0 0 1.269-2.789 1.675 1.675 0 0 0-1.171-.58ZM15.057 29.301a1.696 1.696 0 1 0 1.528-2.447 1.7 1.7 0 0 0-1.707 1.703c.001.258.063.513.18.744ZM28.378 27.134a.7.7 0 0 0-.096-1.286.7.7 0 0 0-.532.04.698.698 0 1 0 .628 1.246ZM24.07 27.666a.999.999 0 1 0 .882 1.793.999.999 0 0 0-.882-1.793ZM18.52 21.74a.7.7 0 1 0-.66-.748.704.704 0 0 0 .648.749h.012ZM18.512 26.139a1 1 0 1 0-.94-1.056 1.003 1.003 0 0 0 .94 1.056ZM13.1 36.334a.999.999 0 1 0-1.34-.445.996.996 0 0 0 1.321.445h.019ZM19.16 27.595a1.696 1.696 0 1 0 2.813 1.893 1.696 1.696 0 0 0-2.813-1.893ZM22.113 34.699a1.7 1.7 0 1 0-1.516 2.466 1.729 1.729 0 0 0 1.602-1.169 1.707 1.707 0 0 0-.086-1.297ZM25.081 34.583a1 1 0 1 0 .284 1.385.999.999 0 0 0-.284-1.385ZM28.334 32.03a.85.85 0 1 0-.899.797.85.85 0 0 0 .899-.797ZM30.673 31.424A.55.55 0 1 0 31.2 32a.552.552 0 0 0-.528-.576ZM28.472 36.866a.7.7 0 1 0 .198.97.704.704 0 0 0-.198-.97ZM12.875 42.005a.55.55 0 1 0 .146.748.547.547 0 0 0-.146-.748ZM24.392 41.945a.55.55 0 1 0 .749.243.558.558 0 0 0-.749-.247v.004ZM18.01 36.402a1.695 1.695 0 1 0-2.812-1.894 1.695 1.695 0 0 0 2.813 1.894ZM14.616 39.01a.845.845 0 1 0-.92 1.42.845.845 0 0 0 .92-1.42ZM18.576 42.26a.7.7 0 1 0-.079 1.398.7.7 0 0 0 .079-1.399ZM18.583 37.861a1 1 0 1 0 .94 1.06 1.003 1.003 0 0 0-.94-1.06ZM22.67 38.94a.85.85 0 1 0 1.142.374.85.85 0 0 0-1.142-.375ZM41.415 27.988c1.643 0 2.796.902 2.796 2.582h2.156c0-2.945-2.171-4.364-4.986-4.364-3.454 0-5.46 1.871-5.46 5.843 0 4.06 2.006 5.839 5.46 5.839 2.849 0 4.986-1.382 4.986-4.327h-2.074c0 1.643-1.123 2.549-2.878 2.549-2.287 0-3.342-1.265-3.342-3.9v-.326c.003-2.583 1.07-3.896 3.342-3.896ZM52.064 26.408l-4.395 11.285h2.175l.902-2.451h5.162l.928 2.451h2.283l-4.405-11.285h-2.65Zm-.66 7.052 1.154-3.092c.228-.61.64-1.924.722-2.156h.082c.083.232.494 1.565.723 2.156l1.153 3.092h-3.833ZM70.853 29.83c0-2.09-1.201-3.422-3.683-3.422h-5.959v11.285h2.108V33.33h3.503l2.133 4.364h2.306l-2.41-4.69c1.328-.524 2.002-1.643 2.002-3.174Zm-3.851 1.725h-3.683v-3.369h3.683c1.123 0 1.729.606 1.729 1.628a1.59 1.59 0 0 1-1.73 1.74ZM78.242 26.408h-4.526v11.285h4.492c3.406 0 5.476-1.778 5.476-5.644 0-3.867-2.04-5.64-5.442-5.64Zm3.335 5.806c-.02 2.47-1.187 3.686-3.324 3.686H75.85v-7.699h2.403c2.133 0 3.324 1.216 3.324 3.683v.33ZM89.235 26.408l-4.398 11.285h2.174l.902-2.451h5.17l.92 2.451h2.268l-4.39-11.285h-2.646Zm-.66 7.052 1.15-3.092c.228-.61.64-1.924.722-2.156h.086c.083.232.494 1.565.723 2.156l1.153 3.092h-3.833ZM105.905 33.123c0 .213.034.79.034.887l-.082.034c-.049-.064-.374-.64-.558-.906l-4.899-6.752h-2.018v11.307h2.021V30.93c0-.277-.033-.82-.033-.902l.082-.053c.052.067.296.546.558.925l4.937 6.793h1.972V26.408h-2.014v6.715ZM116.307 26.21c-3.537 0-5.674 1.871-5.674 5.839 0 3.967 2.133 5.839 5.674 5.839 3.541 0 5.693-1.872 5.693-5.84 0-3.967-2.156-5.838-5.693-5.838Zm3.537 6.022c0 2.583-1.231 3.882-3.537 3.882s-3.518-1.3-3.518-3.882v-.348c0-2.583 1.25-3.896 3.518-3.896s3.537 1.313 3.537 3.896v.348Z"/></svg>
